X:1
T:Away In A Manger (5)
B:Carols for Choirs 1 (Oxford UP, 1961, p. 3)
C:Traditional Normandy tune
M:3/4
L:1/8
K:C
E2|A2A2(AB)|c2c2(cB)|A2A2G2|E4
w:A-way in a_ man-ger, no_ crib for a bed,
(EG)|A2A2G2|E2E2(EG)|A2A2G2|E4
w:The_ lit-tle Lord Je-sus laid_ down his sweet head.
E2|A2A2(AB)|c2c2(cB)|c2c2d2|e4
w:The stars in the_ bright sky looked_ down where he lay,
(ed)|c2c2(cB)|A2A2G2|F2F2D2|E4|]
w:The_ lit-tle Lord_ Je-sus a-sleep on the hay.
